build/img/flexibility.svg

<svg width="48" height="48" viewBox="0 0 48 48" fill="none" xmlns="http://www.w3.org/2000/svg">
<g clip-path="url(#clip0_27_303)">
<rect width="48" height="48" rx="8" fill="#2C2C2C"/>
<g filter="url(#filter0_f_27_303)">
<circle cx="24" cy="24" r="20" fill="url(#paint0_radial_27_303)" fill-opacity="0.5"/>
</g>
<path d="M33.92 14.62C33.8185 14.3757 33.6243 14.1815 33.38 14.08C33.2598 14.0288 33.1307 14.0016 33 14H27C26.7348 14 26.4804 14.1054 26.2929 14.2929C26.1054 14.4804 26 14.7348 26 15C26 15.2652 26.1054 15.5196 26.2929 15.7071C26.4804 15.8946 26.7348 16 27 16H30.59L16 30.59V27C16 26.7348 15.8946 26.4804 15.7071 26.2929C15.5196 26.1054 15.2652 26 15 26C14.7348 26 14.4804 26.1054 14.2929 26.2929C14.1054 26.4804 14 26.7348 14 27V33C14.0016 33.1307 14.0288 33.2598 14.08 33.38C14.1815 33.6243 14.3757 33.8185 14.62 33.92C14.7402 33.9712 14.8693 33.9984 15 34H21C21.2652 34 21.5196 33.8946 21.7071 33.7071C21.8946 33.5196 22 33.2652 22 33C22 32.7348 21.8946 32.4804 21.7071 32.2929C21.5196 32.1054 21.2652 32 21 32H17.41L32 17.41V21C32 21.2652 32.1054 21.5196 32.2929 21.7071C32.4804 21.8946 32.7348 22 33 22C33.2652 22 33.5196 21.8946 33.7071 21.7071C33.8946 21.5196 34 21.2652 34 21V15C33.9984 14.8693 33.9712 14.7402 33.92 14.62Z" fill="#29B550"/>
</g>
<defs>
<filter id="filter0_f_27_303" x="-6" y="-6" width="60" height="60" filterUnits="userSpaceOnUse" color-interpolation-filters="sRGB">
<feFlood flood-opacity="0" result="BackgroundImageFix"/>
<feBlend mode="normal" in="SourceGraphic" in2="BackgroundImageFix" result="shape"/>
<feGaussianBlur stdDeviation="5" result="effect1_foregroundBlur_27_303"/>
</filter>
<radialGradient id="paint0_radial_27_303" cx="0" cy="0" r="1" gradientUnits="userSpaceOnUse" gradientTransform="translate(24 24) rotate(90) scale(20)">
<stop stop-color="#98EAAF" stop-opacity="0.5"/>
<stop offset="1" stop-color="#318749" stop-opacity="0.5"/>
</radialGradient>
<clipPath id="clip0_27_303">
<rect width="48" height="48" rx="24" fill="white"/>
</clipPath>
</defs>
</svg>

<svg width="48" height="48" fill="none" xmlns="http://www.w3.org/2000/svg"><g clip-path="url(#clip0_27_303)"><rect width="48" height="48" rx="8" fill="#2C2C2C"/><g filter="url(#filter0_f_27_303)"><circle cx="24" cy="24" r="20" fill="url(#paint0_radial_27_303)" fill-opacity=".5"/></g><path d="M33.92 14.62a1 1 0 00-.54-.54A1.001 1.001 0 0033 14h-6a1 1 0 000 2h3.59L16 30.59V27a1 1 0 00-2 0v6c.002.13.029.26.08.38a1 1 0 00.54.54c.12.051.25.078.38.08h6a1 1 0 000-2h-3.59L32 17.41V21a1 1 0 002 0v-6a1.001 1.001 0 00-.08-.38z" fill="#29B550"/></g><defs><radialGradient id="paint0_radial_27_303" cx="0" cy="0" r="1" gradientUnits="userSpaceOnUse" gradientTransform="matrix(0 20 -20 0 24 24)"><stop stop-color="#98EAAF" stop-opacity=".5"/><stop offset="1" stop-color="#318749" stop-opacity=".5"/></radialGradient><clipPath id="clip0_27_303"><rect width="48" height="48" rx="24" fill="#fff"/></clipPath><filter id="filter0_f_27_303" x="-6" y="-6" width="60" height="60" filterUnits="userSpaceOnUse" color-interpolation-filters="sRGB"><feFlood flood-opacity="0" result="BackgroundImageFix"/><feBlend in="SourceGraphic" in2="BackgroundImageFix" result="shape"/><feGaussianBlur stdDeviation="5" result="effect1_foregroundBlur_27_303"/></filter></defs></svg>
